www/assets/icons/no_drinks.svg

<svg width="24" height="24" viewBox="0 0 24 24" xmlns="http://www.w3.org/2000/svg" fill='currentColor'><path d="M6.53998 2.2901H21.71V4.2901L15.51 11.2601L10.54 6.2901H17.28L19.06 4.2901H8.53998L6.53998 2.2901ZM20.49 21.9001L18.71 20.1201V20.2901H6.70998V18.2901H11.71V13.2901L10.34 11.7501L2.09998 3.5101L3.50998 2.1001L3.70998 2.2901L21.9 20.4801L20.49 21.9001ZM16.88 18.2901L13.71 15.1201V18.2901H16.88Z"/></svg>

<svg xmlns="http://www.w3.org/2000/svg" width="24" height="24" viewBox="0 0 24 24" fill='currentColor'><path d="M6.54 2.29h15.17v2l-6.2 6.97-4.97-4.97h6.74l1.78-2H8.54zM20.49 21.9l-1.78-1.78v.17h-12v-2h5v-5l-1.37-1.54L2.1 3.51 3.51 2.1l.2.19L21.9 20.48zm-3.61-3.61-3.17-3.17v3.17z"/></svg>
